data/status/weather-fog-small.svg

<?xml version="1.0" encoding="UTF-8" standalone="no"?>
<svg
   xmlns:dc="http://purl.org/dc/elements/1.1/"
   xmlns:cc="http://creativecommons.org/ns#"
   xmlns:rdf="http://www.w3.org/1999/02/22-rdf-syntax-ns#"
   xmlns:svg="http://www.w3.org/2000/svg"
   xmlns="http://www.w3.org/2000/svg"
   xmlns:sodipodi="http://sodipodi.sourceforge.net/DTD/sodipodi-0.dtd"
   xmlns:inkscape="http://www.inkscape.org/namespaces/inkscape"
   width="64px"
   height="64px"
   viewBox="0 0 64 64"
   version="1.1"
   id="svg58"
   sodipodi:docname="weather-fog-small.svg"
   inkscape:version="1.0.1 (3bc2e813f5, 2020-09-07)">
  <metadata
     id="metadata62">
    <rdf:RDF>
      <cc:Work
         rdf:about="">
        <dc:format>image/svg+xml</dc:format>
        <dc:type
           rdf:resource="http://purl.org/dc/dcmitype/StillImage" />
      </cc:Work>
    </rdf:RDF>
  </metadata>
  <sodipodi:namedview
     pagecolor="#ffffff"
     bordercolor="#666666"
     borderopacity="1"
     objecttolerance="10"
     gridtolerance="10"
     guidetolerance="10"
     inkscape:pageopacity="0"
     inkscape:pageshadow="2"
     inkscape:window-width="640"
     inkscape:window-height="480"
     id="namedview60"
     showgrid="false"
     inkscape:current-layer="svg58" />
  <defs
     id="defs33">
    <linearGradient
       id="linear0"
       gradientUnits="userSpaceOnUse"
       x1="7.164"
       y1="86.174004"
       x2="120"
       y2="86.174004"
       gradientTransform="matrix(0.5,0,0,0.5,0,-15)">
      <stop
         offset="0"
         style="stop-color:rgb(86.274511%,91.764706%,98.039216%);stop-opacity:1;"
         id="stop2" />
      <stop
         offset="0.081"
         style="stop-color:rgb(92.941177%,95.686275%,99.215686%);stop-opacity:1;"
         id="stop4" />
      <stop
         offset="0.151"
         style="stop-color:rgb(76.47059%,85.882354%,96.470588%);stop-opacity:1;"
         id="stop6" />
      <stop
         offset="0.793"
         style="stop-color:rgb(86.274511%,91.764706%,98.039216%);stop-opacity:1;"
         id="stop8" />
      <stop
         offset="0.917"
         style="stop-color:rgb(94.509804%,96.862745%,99.215686%);stop-opacity:1;"
         id="stop10" />
      <stop
         offset="1"
         style="stop-color:rgb(86.274511%,91.764706%,98.039216%);stop-opacity:1;"
         id="stop12" />
    </linearGradient>
    <linearGradient
       id="linear1"
       gradientUnits="userSpaceOnUse"
       x1="63.581001"
       y1="110.501999"
       x2="63.581001"
       y2="79.888"
       gradientTransform="matrix(0.5,0,0,0.5,0,-15)">
      <stop
         offset="0"
         style="stop-color:rgb(92.941177%,96.470588%,98.823529%);stop-opacity:1;"
         id="stop15" />
      <stop
         offset="1"
         style="stop-color:rgb(98.039216%,98.823529%,99.607843%);stop-opacity:1;"
         id="stop17" />
    </linearGradient>
    <linearGradient
       id="linear2"
       gradientUnits="userSpaceOnUse"
       x1="7.164"
       y1="86.174004"
       x2="120"
       y2="86.174004"
       gradientTransform="matrix(0.5,0,0,0.5,0,-15)">
      <stop
         offset="0"
         style="stop-color:rgb(86.274511%,91.764706%,98.039216%);stop-opacity:1;"
         id="stop20" />
      <stop
         offset="0.081"
         style="stop-color:rgb(92.941177%,95.686275%,99.215686%);stop-opacity:1;"
         id="stop22" />
      <stop
         offset="0.151"
         style="stop-color:rgb(76.47059%,85.882354%,96.470588%);stop-opacity:1;"
         id="stop24" />
      <stop
         offset="0.793"
         style="stop-color:rgb(86.274511%,91.764706%,98.039216%);stop-opacity:1;"
         id="stop26" />
      <stop
         offset="0.917"
         style="stop-color:rgb(94.509804%,96.862745%,99.215686%);stop-opacity:1;"
         id="stop28" />
      <stop
         offset="1"
         style="stop-color:rgb(86.274511%,91.764706%,98.039216%);stop-opacity:1;"
         id="stop30" />
    </linearGradient>
  </defs>
  <g
     id="surface1"
     transform="translate(0,-2)">
    <path
       style="fill:none;stroke:#99bff0;stroke-width:4;stroke-linecap:round;stroke-linejoin:miter;stroke-miterlimit:4;stroke-opacity:1"
       d="M 19.773438,94.046875 H 90.140625"
       transform="scale(0.5)"
       id="path35" />
    <path
       style="fill:none;stroke:#99bff0;stroke-width:4;stroke-linecap:round;stroke-linejoin:miter;stroke-miterlimit:4;stroke-opacity:1"
       d="M 27.773438,102.04688 H 98.140625"
       transform="scale(0.5)"
       id="path39" />
    <path
       style="fill:none;stroke:#99bff0;stroke-width:4;stroke-linecap:round;stroke-linejoin:miter;stroke-miterlimit:4;stroke-opacity:1"
       d="M 23.773438,110.04688 H 94.140625"
       transform="scale(0.5)"
       id="path43" />
    <path
       style="fill:none;stroke:#99bff0;stroke-width:4;stroke-linecap:round;stroke-linejoin:miter;stroke-miterlimit:4;stroke-opacity:1"
       d="M 45.773438,118.04688 H 116.14063"
       transform="scale(0.5)"
       id="path47" />
    <path
       id="path51"
       style="fill:#deddda;fill-rule:nonzero;stroke:none"
       d="m 39.746094,9.03125 c -5.648438,0.00781 -10.777344,3.300781 -13.132813,8.4375 -1.53125,-0.789062 -3.226562,-1.203125 -4.949219,-1.207031 -5.707031,0.0078 -10.433593,4.433593 -10.8125,10.128906 h -0.03516 c -3.9960938,0 -7.238281,3.238281 -7.238281,7.230469 0,0.08434 0.00885,0.166362 0.011719,0.25 H 3.58203 V 34.5 C 3.5820312,40 7.5,44 13,44 h 36 c 7,0 11,-4.5 11,-11 V 32.425781 H 59.98828 C 59.99068,32.341921 60,32.260223 60,32.175781 c -0.0039,-3.683593 -2.335938,-6.964843 -5.8125,-8.183593 0.01172,-0.164063 0.01953,-0.332032 0.02344,-0.496094 0,-7.988282 -6.472657,-14.464844 -14.464844,-14.464844 z" />
  </g>
</svg>

<?xml version="1.0" encoding="UTF-8"?>
<svg xmlns="http://www.w3.org/2000/svg" xmlns:xlink="http://www.w3.org/1999/xlink" width="64px" height="64px" viewBox="0 0 64 64" version="1.1">
<defs>
<linearGradient id="linear0" gradientUnits="userSpaceOnUse" x1="7.164" y1="86.174004" x2="120" y2="86.174004" gradientTransform="matrix(0.5,0,0,0.5,0,-15)">
<stop offset="0" style="stop-color:rgb(86.274511%,91.764706%,98.039216%);stop-opacity:1;"/>
<stop offset="0.081" style="stop-color:rgb(92.941177%,95.686275%,99.215686%);stop-opacity:1;"/>
<stop offset="0.151" style="stop-color:rgb(76.47059%,85.882354%,96.470588%);stop-opacity:1;"/>
<stop offset="0.793" style="stop-color:rgb(86.274511%,91.764706%,98.039216%);stop-opacity:1;"/>
<stop offset="0.917" style="stop-color:rgb(94.509804%,96.862745%,99.215686%);stop-opacity:1;"/>
<stop offset="1" style="stop-color:rgb(86.274511%,91.764706%,98.039216%);stop-opacity:1;"/>
</linearGradient>
<linearGradient id="linear1" gradientUnits="userSpaceOnUse" x1="63.581001" y1="110.501999" x2="63.581001" y2="79.888" gradientTransform="matrix(0.5,0,0,0.5,0,-15)">
<stop offset="0" style="stop-color:rgb(92.941177%,96.470588%,98.823529%);stop-opacity:1;"/>
<stop offset="1" style="stop-color:rgb(98.039216%,98.823529%,99.607843%);stop-opacity:1;"/>
</linearGradient>
<linearGradient id="linear2" gradientUnits="userSpaceOnUse" x1="7.164" y1="86.174004" x2="120" y2="86.174004" gradientTransform="matrix(0.5,0,0,0.5,0,-15)">
<stop offset="0" style="stop-color:rgb(86.274511%,91.764706%,98.039216%);stop-opacity:1;"/>
<stop offset="0.081" style="stop-color:rgb(92.941177%,95.686275%,99.215686%);stop-opacity:1;"/>
<stop offset="0.151" style="stop-color:rgb(76.47059%,85.882354%,96.470588%);stop-opacity:1;"/>
<stop offset="0.793" style="stop-color:rgb(86.274511%,91.764706%,98.039216%);stop-opacity:1;"/>
<stop offset="0.917" style="stop-color:rgb(94.509804%,96.862745%,99.215686%);stop-opacity:1;"/>
<stop offset="1" style="stop-color:rgb(86.274511%,91.764706%,98.039216%);stop-opacity:1;"/>
</linearGradient>
</defs>
<g id="surface1">
<path style="fill:none;stroke-width:4;stroke-linecap:round;stroke-linejoin:miter;stroke:rgb(60.000002%,75.686276%,94.509804%);stroke-opacity:1;stroke-miterlimit:4;" d="M 19.773438 94.046875 L 90.140625 94.046875 " transform="matrix(0.5,0,0,0.5,0,0)"/>
<path style="fill:none;stroke-width:1;stroke-linecap:round;stroke-linejoin:miter;stroke:rgb(78.431374%,87.058824%,96.862745%);stroke-opacity:1;stroke-miterlimit:4;" d="M 19.773438 93.65625 L 90.140625 93.65625 " transform="matrix(0.5,0,0,0.5,0,0)"/>
<path style="fill:none;stroke-width:4;stroke-linecap:round;stroke-linejoin:miter;stroke:rgb(60.000002%,75.686276%,94.509804%);stroke-opacity:1;stroke-miterlimit:4;" d="M 27.773438 102.046875 L 98.140625 102.046875 " transform="matrix(0.5,0,0,0.5,0,0)"/>
<path style="fill:none;stroke-width:1;stroke-linecap:round;stroke-linejoin:miter;stroke:rgb(78.431374%,87.058824%,96.862745%);stroke-opacity:1;stroke-miterlimit:4;" d="M 27.773438 101.65625 L 98.140625 101.65625 " transform="matrix(0.5,0,0,0.5,0,0)"/>
<path style="fill:none;stroke-width:4;stroke-linecap:round;stroke-linejoin:miter;stroke:rgb(60.000002%,75.686276%,94.509804%);stroke-opacity:1;stroke-miterlimit:4;" d="M 23.773438 110.046875 L 94.140625 110.046875 " transform="matrix(0.5,0,0,0.5,0,0)"/>
<path style="fill:none;stroke-width:1;stroke-linecap:round;stroke-linejoin:miter;stroke:rgb(78.431374%,87.058824%,96.862745%);stroke-opacity:1;stroke-miterlimit:4;" d="M 23.773438 109.65625 L 94.140625 109.65625 " transform="matrix(0.5,0,0,0.5,0,0)"/>
<path style="fill:none;stroke-width:4;stroke-linecap:round;stroke-linejoin:miter;stroke:rgb(60.000002%,75.686276%,94.509804%);stroke-opacity:1;stroke-miterlimit:4;" d="M 45.773438 118.046875 L 116.140625 118.046875 " transform="matrix(0.5,0,0,0.5,0,0)"/>
<path style="fill:none;stroke-width:1;stroke-linecap:round;stroke-linejoin:miter;stroke:rgb(78.431374%,87.058824%,96.862745%);stroke-opacity:1;stroke-miterlimit:4;" d="M 45.773438 117.65625 L 116.140625 117.65625 " transform="matrix(0.5,0,0,0.5,0,0)"/>
<path style=" stroke:none;fill-rule:nonzero;fill:url(#linear0);" d="M 39.746094 12.175781 C 34.097656 12.179688 28.964844 15.476562 26.613281 20.613281 C 25.082031 19.824219 23.386719 19.410156 21.664062 19.40625 C 15.957031 19.414062 11.230469 23.839844 10.851562 29.535156 C 10.839844 29.535156 10.828125 29.535156 10.816406 29.53125 C 7.847656 29.53125 5.304688 31.320312 4.1875 33.871094 L 3.582031 33.871094 L 3.582031 34.5 C 3.582031 40 7.5 44 13 44 L 49 44 C 56 44 60 39.5 60 33 L 60 32.425781 L 59.488281 32.425781 C 58.613281 29.953125 56.664062 28.007812 54.1875 27.136719 C 54.199219 26.972656 54.207031 26.804688 54.210938 26.640625 C 54.210938 18.652344 47.738281 12.175781 39.746094 12.175781 Z M 39.746094 12.175781 "/>
<path style=" stroke:none;fill-rule:nonzero;fill:url(#linear1);" d="M 39.746094 9.03125 C 34.097656 9.039062 28.96875 12.332031 26.613281 17.46875 C 25.082031 16.679688 23.386719 16.265625 21.664062 16.261719 C 15.957031 16.269531 11.230469 20.695312 10.851562 26.390625 C 10.839844 26.390625 10.828125 26.390625 10.816406 26.390625 C 6.820312 26.390625 3.578125 29.628906 3.578125 33.621094 C 3.578125 37.617188 6.820312 40.855469 10.816406 40.855469 L 51.320312 40.855469 C 56.113281 40.855469 60 36.96875 60 32.175781 C 59.996094 28.492188 57.664062 25.210938 54.1875 23.992188 C 54.199219 23.828125 54.207031 23.660156 54.210938 23.496094 C 54.210938 15.507812 47.738281 9.03125 39.746094 9.03125 Z M 39.746094 9.03125 "/>
<path style=" stroke:none;fill-rule:nonzero;fill:url(#linear2);" d="M 39.746094 8.03125 C 34.097656 8.039062 28.96875 11.332031 26.613281 16.46875 C 25.082031 15.679688 23.386719 15.265625 21.664062 15.261719 C 15.957031 15.269531 11.230469 19.695312 10.851562 25.390625 C 10.839844 25.390625 10.828125 25.390625 10.816406 25.390625 C 6.820312 25.390625 3.578125 28.628906 3.578125 32.621094 C 3.578125 32.792969 3.59375 32.957031 3.605469 33.121094 C 3.863281 29.363281 6.988281 26.390625 10.816406 26.390625 C 10.824219 26.390625 10.839844 26.390625 10.851562 26.390625 C 11.230469 20.695312 15.957031 16.269531 21.664062 16.261719 C 23.386719 16.265625 25.082031 16.679688 26.613281 17.46875 C 28.964844 12.332031 34.097656 9.035156 39.746094 9.03125 C 47.511719 9.03125 53.84375 15.148438 54.195312 22.824219 C 54.203125 22.714844 54.210938 22.605469 54.214844 22.496094 C 54.214844 14.507812 47.738281 8.03125 39.746094 8.03125 Z M 54.199219 23 C 54.207031 23.164062 54.214844 23.332031 54.214844 23.496094 C 54.207031 23.660156 54.199219 23.828125 54.1875 23.992188 C 57.472656 25.144531 59.75 28.144531 59.976562 31.617188 C 59.984375 31.472656 60 31.328125 60 31.179688 C 59.996094 27.496094 57.671875 24.21875 54.199219 23 Z M 54.199219 23 "/>
</g>
</svg>
